static/images/team/agustina/tribal.svg

<svg xmlns="http://www.w3.org/2000/svg" width="146" height="93" fill="none" viewBox="0 0 146 93"><g clip-path="url(#clip0)"><path fill="#FCDCD9" d="M18.2399 45.14C21.0399 45.14 22.5099 45.14 24.9799 45.14C24.9799 38.44 24.9199 31.83 24.9999 25.23C25.0799 18.57 25.0999 11.89 25.5599 5.25004C25.6799 3.51004 26.3199 0.190041 28.2499 0.200041C30.1599 0.200041 30.9099 3.55004 30.8999 5.22004C30.8299 17.38 30.4099 29.53 30.1199 41.69C30.0999 42.66 30.2499 43.63 30.3499 44.97C32.1799 44.88 33.7699 44.8 36.6199 44.66C36.6199 33 36.6199 21.55 36.6199 10.11C36.6199 8.44004 36.3199 6.66004 36.8099 5.14004C37.3799 3.36004 37.7099 0.0900415 39.6099 0.160041C41.5299 0.240041 41.9999 3.61004 41.9999 5.34004C42.0499 16 41.7499 26.66 41.5799 37.33C41.5499 39.47 41.5799 41.61 41.5799 44.06C46.8999 44.06 51.7899 44.06 57.8499 44.06C55.7399 41.61 53.8699 39.97 52.7299 37.92C52.0099 36.63 51.0599 34.19 52.2699 33.1C53.4999 32 55.9799 33.18 57.0499 34.12C59.7499 36.47 61.9999 39.34 64.7699 42.37C67.3199 39.19 69.3599 36.38 71.7099 33.87C72.5199 33.01 74.2599 31.74 75.3699 32.45C76.6199 33.26 76.1999 35.75 75.5999 36.84C73.7699 40.16 71.42 43.2 68.8699 46.95C70.95 48.81 73.31 50.46 75.0099 52.63C75.8699 53.73 76.9199 56.28 75.7199 57.39C74.63 58.4 72.57 57.15 71.41 56.39C69.21 54.95 67.3199 53.05 65.0199 51.1C62.5199 53.8 60.3499 56.51 57.7699 58.76C56.8499 59.56 54.5899 60.4 53.4999 59.42C52.3599 58.4 53.0099 56.05 53.6799 54.9C54.8999 52.84 56.8199 51.19 58.5599 49.25C52.8199 49.25 47.5999 49.25 41.7599 49.25C41.7599 51.52 41.7499 53.27 41.7599 55.03C41.8299 65.86 41.8399 76.69 42.0399 87.52C42.0999 90.91 40.7799 92.44 37.4299 92.49C26.9499 92.64 16.4699 92.94 5.98994 93C2.49994 93.02 0.429945 91.09 0.349945 87.41C0.249945 83.08 0.0699448 78.75 0.0699448 74.42C0.0599448 51.77 0.0399448 29.12 0.0999448 6.46004C0.109945 4.00004 -0.880055 0.410041 3.10994 0.480041C4.04994 0.500041 5.68994 4.32004 5.70994 6.40004C5.85994 31.88 5.75994 57.37 5.72994 82.86C5.72994 84.32 5.72994 85.78 5.72994 87.43C8.10995 87.43 10.0599 87.43 12.7599 87.43C12.7599 85.5 12.7599 83.75 12.7599 81.99C12.7599 58.17 12.7699 34.34 12.7699 10.52C12.7699 8.35004 12.5199 6.14004 12.9099 4.04004C13.1699 2.67004 13.6499 0.280041 15.1399 0.200041C16.6099 0.120041 17.5599 2.44004 17.7299 3.70004C18.1999 7.15004 18.1999 10.68 18.2099 14.17C18.2699 24.31 18.2399 34.45 18.2399 45.14ZM18.8599 50.49C18.8599 63.06 18.8599 75.08 18.8599 87.13C21.0799 87.13 23.2799 87.13 24.9299 87.13C24.9299 74.71 24.9299 62.69 24.9299 50.49C22.7299 50.49 21.2799 50.49 18.8599 50.49ZM36.2099 87.48C36.2099 74.77 36.2099 62.54 36.2099 49.87C33.8799 50.07 32.3299 50.21 31.1299 50.32C31.1299 63.02 31.1299 75.22 31.1299 87.49C33.1999 87.48 34.6899 87.48 36.2099 87.48Z"/><path fill="#FCDCD9" d="M113.17 5.55002C113.17 21.04 113.3 35.12 113.06 49.19C113.01 52.02 112.89 57.15 110.21 57.15C107.89 57.15 107.85 52.11 107.76 49.36C107.34 36.24 107.26 23.11 107.04 9.99002C107.02 9.03001 106.84 8.07001 106.72 7.01002C105.06 7.01002 103.67 7.01002 101.85 7.01002C101.85 19.91 101.84 32.52 101.86 45.13C101.87 47.96 102.25 50.81 101.98 53.6C101.85 54.93 101.3 57.35 99.8199 57.43C98.3099 57.51 97.32 55.07 97.2199 53.8C96.65 46.35 96.28 38.89 96.12 31.42C95.95 23.45 96.08 15.48 96.08 7.14002C93.9 7.14002 92.1799 7.14002 90.0999 7.14002C90.0099 8.06001 89.8299 9.00002 89.8499 9.94001C90.1099 23.55 90.41 37.16 90.69 50.77C90.71 51.6 90.9999 52.6 90.6399 53.23C89.7899 54.74 89.3299 57.53 87.5899 57.47C85.9499 57.41 85.1199 54.72 85.0699 53.29C84.7699 45.31 84.8599 37.32 84.7799 29.33C84.7099 22.52 84.71 15.7 84.44 8.90001C84.17 1.94001 84.5099 1.62002 91.3399 1.45002C108.11 1.04002 124.87 0.420015 141.64 0.0100151C142.78 -0.0199849 144.86 0.310015 145.11 1.56001C145.36 2.84001 143.45 4.20002 142.47 4.32002C137.4 4.95002 132.29 5.31002 127.19 5.51002C122.41 5.69002 117.62 5.55002 113.17 5.55002Z"/><path fill="#FCDCD9" d="M68.1999 14.87C71.1299 17.64 73.8199 19.89 76.0999 22.49C76.9799 23.49 78.2499 25.56 77.3399 26.74C76.3499 28.03 73.6399 27.36 72.5499 26.59C69.7299 24.61 67.3399 22.01 64.4999 19.41C61.7999 21.82 59.2899 24.46 56.3699 26.5C55.0899 27.39 52.4199 28.58 51.2099 27.3C50.0299 26.05 51.2999 23.43 52.2799 22.33C54.5499 19.76 57.3999 17.71 60.0499 15.43C56.9599 12.18 54.0299 9.31002 51.3899 6.18002C50.6699 5.33002 49.7399 3.38002 50.6199 2.45002C51.5999 1.42002 53.7899 2.33002 54.7899 3.07002C57.8499 5.32002 60.6099 7.98002 63.8199 10.77C66.6299 8.57002 69.1799 6.23002 72.0899 4.46002C73.3199 3.71002 75.8899 2.76002 76.8999 4.04002C77.8799 5.28002 76.3899 7.44002 75.4299 8.51002C73.4599 10.7 70.9999 12.46 68.1999 14.87Z"/><path fill="#FCDCD9" d="M64.9801 71.84C68.0101 69.48 70.6301 67.14 73.5601 65.31C74.6501 64.63 77.0201 63.93 77.9601 65.09C78.8701 66.21 77.7101 68.29 76.8601 69.22C74.7501 71.53 72.2101 73.45 69.3201 75.99C72.1301 78.64 74.8901 80.95 77.2501 83.62C78.1201 84.61 79.3101 86.73 78.3801 87.9C77.3701 89.17 74.6901 88.48 73.6001 87.71C70.7801 85.72 68.4001 83.11 65.5801 80.52C62.8001 83.02 60.2901 85.68 57.3501 87.73C56.1001 88.6 53.4001 89.66 52.2201 88.37C51.1201 87.16 52.3101 84.7 53.2501 83.65C55.5401 81.07 58.3501 78.96 61.1101 76.53C57.9801 73.23 54.9701 70.23 52.2101 67.01C51.5801 66.27 50.8901 64.48 51.6701 63.62C52.5301 62.67 54.6101 63.2 55.4501 63.83C58.7501 66.29 61.7901 69.11 64.9801 71.84Z"/></g><defs><clipPath id="clip0"><rect width="145.13" height="93" fill="#fff"/></clipPath></defs></svg>

<svg xmlns="http://www.w3.org/2000/svg" width="146" height="93" fill="none"><g clip-path="url(#clip0)" fill="#FCDCD9"><path d="M18.24 45.14h6.74c0-6.7-.06-13.31.02-19.91.08-6.66.1-13.34.56-19.98.12-1.74.76-5.06 2.69-5.05 1.91 0 2.66 3.35 2.65 5.02-.07 12.16-.49 24.31-.78 36.47-.02.97.13 1.94.23 3.28l6.27-.31V10.11c0-1.67-.3-3.45.19-4.97.57-1.78.9-5.05 2.8-4.98C41.53.24 42 3.61 42 5.34c.05 10.66-.25 21.32-.42 31.99-.03 2.14 0 4.28 0 6.73h16.27c-2.11-2.45-3.98-4.09-5.12-6.14-.72-1.29-1.67-3.73-.46-4.82 1.23-1.1 3.71.08 4.78 1.02 2.7 2.35 4.95 5.22 7.72 8.25 2.55-3.18 4.59-5.99 6.94-8.5.81-.86 2.55-2.13 3.66-1.42 1.25.81.83 3.3.23 4.39-1.83 3.32-4.18 6.36-6.73 10.11 2.08 1.86 4.44 3.51 6.14 5.68.86 1.1 1.91 3.65.71 4.76-1.09 1.01-3.15-.24-4.31-1-2.2-1.44-4.09-3.34-6.39-5.29-2.5 2.7-4.67 5.41-7.25 7.66-.92.8-3.18 1.64-4.27.66-1.14-1.02-.49-3.37.18-4.52 1.22-2.06 3.14-3.71 4.88-5.65h-16.8c0 2.27-.01 4.02 0 5.78.07 10.83.08 21.66.28 32.49.06 3.39-1.26 4.92-4.61 4.97-10.48.15-20.96.45-31.44.51-3.49.02-5.56-1.91-5.64-5.59-.1-4.33-.28-8.66-.28-12.99C.06 51.77.04 29.12.1 6.46.11 4-.88.41 3.11.48c.94.02 2.58 3.84 2.6 5.92.15 25.48.05 50.97.02 76.46v4.57h7.03v-5.44c0-23.82.01-47.65.01-71.47 0-2.17-.25-4.38.14-6.48.26-1.37.74-3.76 2.23-3.84 1.47-.08 2.42 2.24 2.59 3.5.47 3.45.47 6.98.48 10.47.06 10.14.03 20.28.03 30.97zm.62 5.35v36.64h6.07V50.49h-6.07zm17.35 36.99V49.87c-2.33.2-3.88.34-5.08.45v37.17c2.07-.01 3.56-.01 5.08-.01zm76.96-81.93c0 15.49.13 29.57-.11 43.64-.05 2.83-.17 7.96-2.85 7.96-2.32 0-2.36-5.04-2.45-7.79-.42-13.12-.5-26.25-.72-39.37-.02-.96-.2-1.92-.32-2.98h-4.87c0 12.9-.01 25.51.01 38.12.01 2.83.39 5.68.12 8.47-.13 1.33-.68 3.75-2.16 3.83-1.51.08-2.5-2.36-2.6-3.63-.57-7.45-.94-14.91-1.1-22.38-.17-7.97-.04-15.94-.04-24.28H90.1c-.09.92-.27 1.86-.25 2.8.26 13.61.56 27.22.84 40.83.02.83.31 1.83-.05 2.46-.85 1.51-1.31 4.3-3.05 4.24-1.64-.06-2.47-2.75-2.52-4.18-.3-7.98-.21-15.97-.29-23.96-.07-6.81-.07-13.63-.34-20.43-.27-6.96.07-7.28 6.9-7.45 16.77-.41 33.53-1.03 50.3-1.44 1.14-.03 3.22.3 3.47 1.55.25 1.28-1.66 2.64-2.64 2.76-5.07.63-10.18.99-15.28 1.19-4.78.18-9.57.04-14.02.04z"/><path d="M68.2 14.87c2.93 2.77 5.62 5.02 7.9 7.62.88 1 2.15 3.07 1.24 4.25-.99 1.29-3.7.62-4.79-.15-2.82-1.98-5.21-4.58-8.05-7.18-2.7 2.41-5.21 5.05-8.13 7.09-1.28.89-3.95 2.08-5.16.8-1.18-1.25.09-3.87 1.07-4.97 2.27-2.57 5.12-4.62 7.77-6.9-3.09-3.25-6.02-6.12-8.66-9.25-.72-.85-1.65-2.8-.77-3.73.98-1.03 3.17-.12 4.17.62 3.06 2.25 5.82 4.91 9.03 7.7 2.81-2.2 5.36-4.54 8.27-6.31 1.23-.75 3.8-1.7 4.81-.42.98 1.24-.51 3.4-1.47 4.47-1.97 2.19-4.43 3.95-7.23 6.36zm-3.22 56.97c3.03-2.36 5.65-4.7 8.58-6.53 1.09-.68 3.46-1.38 4.4-.22.91 1.12-.25 3.2-1.1 4.13-2.11 2.31-4.65 4.23-7.54 6.77 2.81 2.65 5.57 4.96 7.93 7.63.87.99 2.06 3.11 1.13 4.28-1.01 1.27-3.69.58-4.78-.19-2.82-1.99-5.2-4.6-8.02-7.19-2.78 2.5-5.29 5.16-8.23 7.21-1.25.87-3.95 1.93-5.13.64-1.1-1.21.09-3.67 1.03-4.72 2.29-2.58 5.1-4.69 7.86-7.12-3.13-3.3-6.14-6.3-8.9-9.52-.63-.74-1.32-2.53-.54-3.39.86-.95 2.94-.42 3.78.21 3.3 2.46 6.34 5.28 9.53 8.01z"/></g><defs><clipPath id="clip0"><path fill="#fff" d="M0 0H145.13V93H0z"/></clipPath></defs></svg>
